dist/img/tab3-back.svg

<svg width="400" height="120" viewBox="0 0 400 120" fill="none" xmlns="http://www.w3.org/2000/svg">
<path fill-rule="evenodd" clip-rule="evenodd" d="M0 8C0 3.58172 3.58172 0 8 0L329.048 0C332.581 0 335.695 2.31734 336.71 5.70122L348.762 45.874C349.535 48.4498 351.55 50.4651 354.126 51.2378L394.299 63.2896C397.683 64.3048 400 67.4194 400 70.9522V112C400 116.418 396.418 120 392 120H7.99999C3.58171 120 0 116.418 0 112L0 8Z" fill="#1E2549" fill-opacity="0.5"/>
</svg>

<svg width="400" height="120" fill="none" xmlns="http://www.w3.org/2000/svg"><path fill-rule="evenodd" clip-rule="evenodd" d="M0 8a8 8 0 0 1 8-8h321.048a7.999 7.999 0 0 1 7.662 5.701l12.052 40.173a8 8 0 0 0 5.364 5.364l40.173 12.052A8 8 0 0 1 400 70.952V112a8 8 0 0 1-8 8H8a8 8 0 0 1-8-8V8z" fill="#1E2549" fill-opacity=".5"/></svg>
